<?xml version="1.0" encoding="UTF-8"?>
<map version="1.10" tiledversion="1.11.2" orientation="orthogonal" renderorder="right-down" width="32" height="20" tilewidth="32" tileheight="32" infinite="0">
 <tileset firstgid="1" source="terrain.tsx"/>
 <layer id="1" name="Terrain" width="32" height="20"><data encoding="csv">
2,2,2,2,2,2,2,2,2,2,2,2,2,2,2,2,2,2,2,2,2,2,2,2,2,2,2,2,2,2,2,2,
2,1,1,1,1,1,1,1,1,1,5,5,1,1,1,1,1,1,1,1,1,1,1,1,1,1,1,1,1,1,1,2,
2,1,1,1,1,1,1,1,1,1,5,5,1,1,1,1,1,1,1,1,1,1,1,1,1,1,1,1,1,1,1,2,
2,1,1,1,1,1,1,1,1,1,5,5,1,1,1,1,1,1,1,1,1,1,1,1,1,1,1,1,1,1,1,2,
2,1,1,1,1,1,1,1,1,1,5,5,1,1,1,1,1,1,1,1,3,3,3,3,3,3,3,3,1,1,1,2,
2,1,1,1,1,1,1,1,1,1,5,5,1,1,1,1,1,1,1,1,3,3,3,3,3,3,3,3,1,1,1,2,
2,1,1,1,1,1,1,1,1,1,5,5,1,1,1,1,1,1,1,1,3,3,3,3,3,3,3,3,1,1,1,2,
2,1,1,1,1,1,1,1,1,1,5,5,1,1,1,1,1,1,1,1,3,3,3,3,3,3,3,3,1,1,1,2,
2,1,1,1,1,1,1,1,1,1,5,5,1,1,1,1,1,1,1,1,3,3,3,3,3,3,3,3,1,1,1,2,
2,5,5,5,5,5,5,5,5,5,5,5,5,5,5,5,5,5,5,5,3,3,3,3,3,3,3,3,5,5,5,2,
2,5,5,5,5,5,5,5,5,5,5,5,5,5,5,5,5,5,5,5,3,3,3,3,3,3,3,3,5,5,5,2,
2,1,1,1,1,1,1,1,1,1,5,5,1,1,1,1,1,1,1,1,3,3,3,3,3,3,3,3,1,1,1,2,
2,1,1,1,1,1,1,1,1,1,5,5,1,1,1,1,1,1,1,1,3,3,3,3,3,3,3,3,1,1,1,2,
2,1,1,1,1,1,1,1,1,1,5,5,1,1,1,1,1,1,1,1,3,3,3,3,3,3,3,3,1,1,1,2,
2,1,1,1,1,1,1,1,1,1,5,5,1,1,1,1,1,1,1,1,3,3,3,3,3,3,3,3,1,1,1,2,
2,1,1,1,1,2,2,2,2,2,2,2,2,2,2,2,1,1,1,1,1,1,1,1,1,1,1,1,1,1,1,2,
2,1,1,1,1,1,1,1,1,1,5,5,1,1,1,1,1,1,1,1,1,1,1,1,1,1,1,1,1,1,1,2,
2,1,1,1,1,1,1,1,1,1,5,5,1,1,1,1,1,1,1,1,1,1,1,1,1,1,1,1,1,1,1,2,
2,1,1,1,1,1,1,1,1,1,5,5,1,1,1,1,1,1,1,1,1,1,1,1,1,1,1,1,1,1,1,2,
2,2,2,2,2,2,2,2,2,2,2,2,2,2,2,2,2,2,2,2,2,2,2,2,2,2,2,2,2,2,2,2
</data></layer>
</map>
